src/assets/light/workflow.svg

<svg height="16" viewBox="0 0 16 16" width="16" xmlns="http://www.w3.org/2000/svg"><path d="m8.5 6.06327212v3.87345576c0 1.04590392.5062717 2.06327212 2.0032573 2.06327212s1.9967235-1.0148347 1.9967235-2.06301369c-.8626039-.22202809-1.4999808-1.00507352-1.4999808-1.93698631 0-1.1045695.8954305-2 2-2s2 .8954305 2 2c0 .93155158-.6368829 1.71435119-1.4989778 1.93672788 0 1.06822272-.5010222 3.06327212-2.9977649 3.06327212-2.49674273 0-3.0032573-1.9901634-3.0032573-3.06327212 0-.64283744 0-3.4425472 0-3.87345576 0-1.05367718-.5076585-2.06327212-1.99429545-2.06327212s-2.00468239 1.01212313-2.00468239 2.06327212c.81563071.21039129 1.42967165.92242337 1.4934921 1.78746554l.00548574.14926234c0 1.1045695-.8954305 2-2 2s-2-.8954305-2-2c0-.93191279.63737692-1.71495822 1.49998077-1.93698631 0-1.05989091.50001923-3.06301369 3.00572378-3.06301369s2.99429545 2.00258343 2.99429545 3.06327212zm-5.5.93672788c-.55228475 0-1 .44771525-1 1s.44771525 1 1 1 1-.44771525 1-1-.44771525-1-1-1zm10 0c-.5522847 0-1 .44771525-1 1s.4477153 1 1 1 1-.44771525 1-1-.4477153-1-1-1z" fill="#424242" fill-rule="evenodd"/></svg>

<?xml version="1.0" encoding="UTF-8"?>
<svg width="16px" height="16px" viewBox="0 0 16 16" version="1.1" xmlns="http://www.w3.org/2000/svg" xmlns:xlink="http://www.w3.org/1999/xlink">
    <title>Artboard</title>
    <g stroke="none" stroke-width="1" fill="none" fill-rule="evenodd">
        <path d="M8.5,6.06327212 C8.5,6.69775038 8.5,9.0397536 8.5,9.93672788 C8.5,10.9826318 9.0062717,12 10.5032573,12 C12.0002429,12 12.4999808,10.9851653 12.4999808,9.93698631 C11.6373769,9.71495822 11,8.93191279 11,8 C11,6.8954305 11.8954305,6 13,6 C14.1045695,6 15,6.8954305 15,8 C15,8.93155158 14.3631171,9.71435119 13.5010222,9.93672788 C13.5010222,11.0049506 13,13 10.5032573,13 C8.00651457,13 7.5,11.0098366 7.5,9.93672788 C7.5,9.29389044 7.5,6.49418068 7.5,6.06327212 C7.5,5.00959494 6.9923415,4 5.50570455,4 C4.0190676,4 3.50102216,5.01212313 3.50102216,6.06327212 C4.31665287,6.27366341 4.93069381,6.98569549 4.99451426,7.85073766 L5,8 C5,9.1045695 4.1045695,10 3,10 C1.8954305,10 1,9.1045695 1,8 C1,7.06808721 1.63737692,6.28504178 2.49998077,6.06301369 C2.49998077,5.00312278 3,3 5.50570455,3 C8.0114091,3 8.5,5.00258343 8.5,6.06327212 Z M3,7 C2.44771525,7 2,7.44771525 2,8 C2,8.55228475 2.44771525,9 3,9 C3.55228475,9 4,8.55228475 4,8 C4,7.44771525 3.55228475,7 3,7 Z M13,7 C12.4477153,7 12,7.44771525 12,8 C12,8.55228475 12.4477153,9 13,9 C13.5522847,9 14,8.55228475 14,8 C14,7.44771525 13.5522847,7 13,7 Z" fill="#424242"></path>
    </g>
</svg>
